X:88
T:88 Untitled Jig (The Royal Albert)
C:Shoosmith MS
I:abc2nwc
M:6/8
L:1/8
K:G
GAG BAG|d2d d2g|d2g d2c|B2A G2D|GAG BAG|d2d d2g|fgf edc|d3d3:|
a2d c'2b|agf gfg|a2d c'2b|agf g3|eaa dbb|caa g2G|cBA d2F|G3G3:|
B3ABA|G2G GBd|d3cdc|B2B B2g|g2f f2e|e2d d2c|Bcd dcB|B3A3|
g3gec|BcB B3|c'3c'af|gag g2d|g2f e2d|e2d c2B|ABA d2F|G3G3:|

